dist/img/svg/quotes.svg

<svg width="84" height="60" viewBox="0 0 84 60" fill="none" xmlns="http://www.w3.org/2000/svg">
<path d="M83.4583 15.2375C83.3874 14.8106 83.3541 14.5795 83.3541 14.5795L83.2458 14.603C81.4374 6.64041 73.9249 0.663574 64.9166 0.663574C54.5624 0.663574 46.1666 8.55566 46.1666 18.2886C46.1666 28.0215 54.5624 35.9136 64.9166 35.9136C65.8458 35.9136 66.7374 35.7804 67.6249 35.659C67.3374 36.5677 67.0416 37.492 66.5666 38.3223C66.0916 39.5287 65.3499 40.5744 64.6124 41.628C63.9958 42.7677 62.9083 43.5393 62.1083 44.5146C61.2708 45.4624 60.1291 46.093 59.2249 46.8802C58.3374 47.7027 57.1749 48.114 56.2499 48.6937C55.2833 49.2146 54.4416 49.7903 53.5416 50.0645C52.6749 50.4013 51.9166 50.6912 51.2958 50.934C50.0374 51.4236 49.3208 51.7056 49.3208 51.7056L51.3374 59.3C51.3374 59.3 52.2458 59.0963 53.8249 58.736C54.6208 58.548 55.5916 58.3287 56.6958 58.0662C57.8249 57.8704 59.0291 57.3338 60.3708 56.8442C61.6916 56.2842 63.2291 55.9121 64.6541 55.0152C66.0874 54.1613 67.7416 53.4485 69.1999 52.3048C70.6124 51.1259 72.3166 50.1037 73.5749 48.6075C74.9499 47.2053 76.3083 45.7327 77.3624 44.0563C78.5833 42.4583 79.4124 40.7037 80.2874 38.9686C81.0791 37.2335 81.7166 35.4592 82.2374 33.7359C83.2249 30.2814 83.6666 26.9992 83.8374 24.191C83.9791 21.3788 83.8958 19.0406 83.7208 17.3486C83.6583 16.5496 83.5458 15.7702 83.4583 15.2375ZM37.6249 15.2375C37.5541 14.8106 37.5208 14.5795 37.5208 14.5795L37.4124 14.603C35.6041 6.64041 28.0916 0.663574 19.0833 0.663574C8.72909 0.663574 0.333252 8.55566 0.333252 18.2886C0.333252 28.0215 8.72909 35.9136 19.0833 35.9136C20.0124 35.9136 20.9041 35.7804 21.7916 35.659C21.5041 36.5677 21.2083 37.492 20.7333 38.3223C20.2583 39.5287 19.5166 40.5744 18.7791 41.628C18.1624 42.7677 17.0749 43.5393 16.2749 44.5146C15.4374 45.4624 14.2958 46.093 13.3916 46.8802C12.5041 47.7027 11.3416 48.114 10.4166 48.6937C9.44992 49.2146 8.60825 49.7903 7.70825 50.0645C6.84159 50.4013 6.08325 50.6912 5.46242 50.934C4.20825 51.4157 3.49159 51.6978 3.49159 51.6978L5.50825 59.2922C5.50825 59.2922 6.41659 59.0885 7.99575 58.7282C8.79159 58.5402 9.76242 58.3208 10.8666 58.0584C11.9958 57.8626 13.1999 57.326 14.5416 56.8364C15.8624 56.2763 17.3999 55.9042 18.8249 55.0073C20.2583 54.1535 21.9124 53.4407 23.3708 52.297C24.7833 51.1181 26.4874 50.0958 27.7458 48.5997C29.1208 47.1975 30.4791 45.7248 31.5333 44.0485C32.7541 42.4505 33.5833 40.6958 34.4583 38.9607C35.2499 37.2257 35.8874 35.4514 36.4083 33.7281C37.3958 30.2736 37.8374 26.9914 38.0083 24.1832C38.1499 21.371 38.0666 19.0327 37.8916 17.3407C37.8249 16.5496 37.7124 15.7702 37.6249 15.2375Z" fill="#ECEFF9"/>
</svg>

<svg width="84" height="60" viewBox="0 0 84 60" fill="none" xmlns="http://www.w3.org/2000/svg"><path d="M83.458 15.238c-.07-.427-.104-.659-.104-.659l-.108.024C81.437 6.64 73.925.663 64.916.663c-10.354 0-18.75 7.893-18.75 17.626 0 9.732 8.396 17.625 18.75 17.625.93 0 1.821-.134 2.709-.255-.288.909-.583 1.833-1.058 2.663-.475 1.207-1.217 2.252-1.955 3.306-.616 1.14-1.704 1.911-2.504 2.887-.837.947-1.979 1.578-2.883 2.365-.888.823-2.05 1.234-2.975 1.814-.967.52-1.808 1.096-2.708 1.37-.867.337-1.625.627-2.246.87-1.259.49-1.975.772-1.975.772l2.016 7.594s.909-.204 2.488-.564c.796-.188 1.767-.407 2.87-.67 1.13-.196 2.334-.732 3.676-1.222 1.32-.56 2.858-.932 4.283-1.829 1.433-.854 3.088-1.566 4.546-2.71 1.412-1.18 3.117-2.201 4.375-3.697 1.375-1.403 2.733-2.875 3.787-4.552 1.221-1.598 2.05-3.352 2.925-5.087a41.662 41.662 0 001.95-5.233c.988-3.455 1.43-6.737 1.6-9.545.142-2.812.059-5.15-.116-6.842a25.948 25.948 0 00-.263-2.111zm-45.833 0c-.07-.427-.104-.659-.104-.659l-.109.024C35.604 6.64 28.092.663 19.083.663 8.73.664.333 8.557.333 18.29c0 9.732 8.396 17.625 18.75 17.625.93 0 1.821-.134 2.709-.255-.288.909-.584 1.833-1.059 2.663-.475 1.207-1.216 2.252-1.954 3.306-.617 1.14-1.704 1.911-2.504 2.887-.838.947-1.98 1.578-2.883 2.365-.888.823-2.05 1.234-2.975 1.814-.967.52-1.809 1.096-2.709 1.37-.866.337-1.625.627-2.246.87-1.254.482-1.97.764-1.97.764l2.016 7.594s.909-.203 2.488-.564c.796-.188 1.766-.407 2.87-.67 1.13-.195 2.334-.732 3.676-1.222 1.32-.56 2.858-.932 4.283-1.829 1.433-.853 3.087-1.566 4.546-2.71 1.412-1.179 3.116-2.201 4.375-3.697 1.375-1.403 2.733-2.875 3.787-4.552 1.221-1.598 2.05-3.352 2.925-5.087a41.686 41.686 0 001.95-5.233c.988-3.454 1.43-6.737 1.6-9.545.142-2.812.059-5.15-.116-6.842-.067-.791-.18-1.57-.267-2.104z" fill="#ECEFF9"/></svg>
